X:1
T: Johnnie Steele
C:J. Barnett
R:Strathspey
Q: 128
K:D
M:4/4
L:1/16
|:A,2|D4 F3A d3c df3|DD3 F3D EB,3 B,3E|D4 F3A d3c d3A|((3B2c2d2) ((3A2B2G2) FD3 D2A,2|
D4 F3A d3c df3|DD3 F3A GFED CE3|D4 F3A d3e d3A|((3B2c2d2) ((3A2B2G2) FD3 D2A2|
d3e f3g a3b a3d|c3d e3f g3a g3e|d3e f3g a3b a3f|((3f2d2e2) ((3b2a2g2) fd3 d3g|
((3f2d2f2) ((3a2f2d2) ((3g2f2g2) ((3e2f2g2) |((3f2d2f2) ((3e2c2e2) ((3d2c2B2) ((3A2B2=c2) |((3B2G2B2) ((3d2c2B2) ((3A2f2e2) ((3d2c2B2) |((3A2B2A2) ((3G2F2E2) FD3 D2:|
